packages/bezier-icons/icons/limit.svg

<svg width="24" height="24" viewBox="0 0 24 24" fill="none" xmlns="http://www.w3.org/2000/svg">
<path fill-rule="evenodd" clip-rule="evenodd" d="M2 12.5C2 6.97715 6.47715 2.5 12 2.5C17.5228 2.5 22 6.97715 22 12.5C22 15.738 20.4599 18.6168 18.0764 20.4427C17.5624 20.8364 16.9502 21 16.3725 21H7.62751C7.0498 21 6.43757 20.8364 5.92357 20.4427C3.54008 18.6168 2 15.738 2 12.5ZM12 4.5C7.58172 4.5 4 8.08172 4 12.5C4 15.0894 5.2291 17.3912 7.13984 18.855C7.2514 18.9405 7.4172 19 7.62751 19H16.3725C16.5828 19 16.7486 18.9405 16.8602 18.855C18.7709 17.3912 20 15.0894 20 12.5C20 8.08172 16.4183 4.5 12 4.5ZM10 15.1459C10 14.4436 10.3968 13.8016 11.0249 13.4876L14.6584 11.6708C15.0881 11.4559 15.5441 11.9119 15.3292 12.3417L13.5125 15.9751C13.1984 16.6032 12.5564 17 11.8541 17C10.8301 17 10 16.1699 10 15.1459ZM17.6713 10.4278C17.3921 9.54712 16.9032 8.71898 16.2071 8.0229C13.8836 5.69938 10.1164 5.69938 7.79289 8.0229C7.09681 8.71898 6.60787 9.54712 6.32868 10.4278C6.16179 10.9543 6.45327 11.5164 6.97974 11.6833C7.5062 11.8501 8.06828 11.5587 8.23518 11.0322C8.41981 10.4498 8.74292 9.9013 9.20711 9.43711C10.7496 7.89464 13.2504 7.89464 14.7929 9.43711C15.2571 9.9013 15.5802 10.4498 15.7648 11.0322C15.9317 11.5587 16.4938 11.8501 17.0203 11.6833C17.5467 11.5164 17.8382 10.9543 17.6713 10.4278Z" fill="#313234"/>
</svg>

<svg xmlns="http://www.w3.org/2000/svg" width="24" height="24" fill="none" viewBox="0 0 24 24"><path fill="#313234" fill-rule="evenodd" d="M2 12.5c0-5.523 4.477-10 10-10s10 4.477 10 10a9.99 9.99 0 0 1-3.924 7.943 2.8 2.8 0 0 1-1.704.557H7.628c-.578 0-1.19-.164-1.704-.557A9.99 9.99 0 0 1 2 12.5m10-8a8 8 0 0 0-4.86 14.355.8.8 0 0 0 .488.145h8.744c.21 0 .377-.06.488-.145A8 8 0 0 0 12 4.5m-2 10.646c0-.702.397-1.344 1.025-1.658l3.633-1.817a.5.5 0 0 1 .671.67l-1.817 3.634a1.854 1.854 0 0 1-3.512-.83m7.671-4.718a5.95 5.95 0 0 0-11.343 0 1 1 0 0 0 1.907.604 3.95 3.95 0 0 1 7.53 0 1 1 0 0 0 1.906-.604" clip-rule="evenodd"/></svg>
